X:1
T:Title
%%score { ( 1 4 ) | ( 2 3 ) }
L:1/8
Q:1/4=86
M:4/4
K:G
V:1 treble nm="Grand Piano"
V:4 treble 
V:2 bass 
V:3 bass 
V:1
 [DB]B_B=B c B3 | [^CA]^GBA [G,CE]4 | [CA]^GAB [Fd]cA_B | B6 z2 | [DB]BAA G G3 | %5
w: M.~Isabelle~Ritter * * * * *|||||
 [EG]F[EG][^DA] [=DB]3 [DB] | [^CA]BAG FEFG | A6 z2 | B B2 B _B=BcB | A^GBA E4 | %10
w: |||||
 [FA] [FA]2 [FA] [F^G][FA][FB][FA] | AGEG D4 | DBcB B>A A2 |[M:5/4] D[FA][FB]F A>G G4 | %14
w: ||||
[M:4/4] E[EG][DF]E D d2 [EGc] | [DGB]2 [CFA]2 [B,DG]4 |] %16
w: ||
V:2
 z D^CD E D3 | z ^CCC A,,4 | z B,CD z EC^C | z[K:treble] GFE D2 z2 | z D^DD E E3 | %5
 z ^D G,2 [G,,G,]4 | z[K:treble] ^CCC CCCC | [D,F,C]6 z2 | %8
 [G,DG] [G,DG]2 [G,DG] [G,^CG][G,DG][G,EG][G,DG] | [A,^CE][A,CE][A,CE][A,CE] [A,C]4 | %10
 [D,C] [D,C]2 [D,C] [D,B,][D,C][D,D][D,C] | [G,B,D][G,B,D][G,C][G,CE] [G,B,]4 | %12
 [G,B,][K:treble][G,DG][G,EG][G,DG] [A,^CE]>[A,CE][K:bass] [A,CE]2 | %13
[M:5/4] [D,C][D,C][D,D][D,CD] [G,CD]>[G,B,D] [G,B,D]4 | %14
[M:4/4] [C,G,C][C,C][C,G,][C,G,C] [G,B,] [G,B,G]2 C, | D,2 D,2 G,4 |] %16
V:3
 [G,,G,]4 [E,^G,]4 | [A,,G,]4 z4 | [D,F,]4 [D,F,]4 | [G,,G,]6[K:treble] z2 | G,2 [F,B,]2 [E,B,]4 | %5
 C,4 z4 | [A,,G,]8[K:treble] | x8 | x8 | x8 | x8 | x8 | x[K:treble] x5[K:bass] x2 |[M:5/4] x10 | %14
[M:4/4] x8 | x8 |] %16
V:4
 x8 | x8 | x8 | .D2 z2 z4 | x8 | C2 z2 z4 | x8 | x8 | x8 | x8 | x8 | x8 | x8 |[M:5/4] x10 | %14
[M:4/4] x8 | x8 |] %16

